X:1
T:Freedom Come All Ye
M:3/4
L:1/8
K:Eb
 B3/2 G/2| E2 E F/2 G/2- GB| c2 B z ce|
M:4/4
 B2 A3/2 B/2 G E/2 G/2- GA/2-G/2|
M:3/4
 F3 z BG| E2 E F/2 G/2- GB| c2 B z ce| B2B/2-G/2 E/2F/2 GF| E3 z cd|\
 e2 B3/2 B/2 ce| B/2 G3/2- G z/2 c/2- ce|
M:4/4
 B2 A/2 B3/2 GE GA/2-G/2| F3 z BG E2-| E2 E3/2 F/2 GB c2-|
M:3/4
 c2 B z ce| B2B/2-G/2E/2-F/2 GF| E3 z||
